ultrasound/ui/components/svgs/snx.svg

<svg width="224" height="30" viewBox="0 0 224 30" fill="none" xmlns="http://www.w3.org/2000/svg">
<path d="M7.00677 9.80523C6.804 9.57155 6.55437 9.45443 6.25731 9.45443H0.182051C0.128089 9.45443 0.0839395 9.43722 0.0506907 9.40281C0.0168969 9.36895 0 9.33065 0 9.28957V5.16486C0 5.12378 0.0168969 5.08604 0.0506907 5.05162C0.0839395 5.01721 0.128089 5 0.182051 5H6.60179C8.22171 5 9.61925 5.66719 10.7939 7.00047L12.3533 8.91823L9.31565 12.6511L7.00677 9.80523ZM18.2263 6.97993C19.4009 5.65998 20.805 5 22.4386 5H28.8381C28.8921 5 28.9324 5.01388 28.9597 5.04108C28.9864 5.06883 29 5.1099 29 5.16486V9.28957C29 9.33065 28.9864 9.36895 28.9597 9.40281C28.9324 9.43722 28.8921 9.45443 28.8381 9.45443H22.7629C22.4658 9.45443 22.2162 9.57155 22.0134 9.80523L17.5379 15.291L22.0336 20.8178C22.2363 21.0382 22.4789 21.1481 22.7629 21.1481H28.8381C28.8921 21.1481 28.9324 21.1653 28.9597 21.1997C28.9864 21.2341 29 21.2791 29 21.3335V25.4582C29 25.4993 28.9864 25.5376 28.9597 25.5714C28.9324 25.6058 28.8921 25.623 28.8381 25.623H22.4386C20.805 25.623 19.4075 24.9564 18.2465 23.6226L14.5204 19.0444L10.7939 23.6226C9.61925 24.9564 8.21517 25.623 6.58162 25.623H0.182051C0.128089 25.623 0.0872099 25.6058 0.0605018 25.5714C0.0332488 25.537 0.0201673 25.4926 0.0201673 25.4371V21.3124C0.0201673 21.2713 0.0332488 21.2336 0.0605018 21.1991C0.0872099 21.1647 0.128089 21.1475 0.182051 21.1475H6.25731C6.54074 21.1475 6.79038 21.031 7.00677 20.7967L11.4011 15.3937L18.2263 6.97993Z" fill="#00D1FF"/>
<path d="M49.98 22.86H43.48C41.78 22.86 40.36 21.4 40.36 19.76V8.86001H42.86V19.46C42.86 20.16 43.42 20.74 44.12 20.74H49.32C50.02 20.74 50.6 20.16 50.6 19.46V8.86001H53.1V19.76C53.1 21.42 51.68 22.86 49.98 22.86Z" fill="white"/>
<path d="M55.7692 8.14001H58.0892V22.86H55.7692V8.14001Z" fill="white"/>
<path d="M67.2701 20.86V22.86H64.4901C62.9501 22.86 61.6901 21.66 61.6901 20.08V14.04H59.8101V12.02H61.6901V9.64002H64.0101V12.02H67.2901V14.04H64.0101V19.74C64.0101 20.4 64.4501 20.86 65.1101 20.86H67.2701Z" fill="white"/>
<path d="M71.4867 14.72V22.86H69.1867V12.02H71.4867V13.38L73.1667 12.02H76.5867V14.04H72.1867C71.8067 14.04 71.4867 14.32 71.4867 14.72Z" fill="white"/>
<path d="M81.02 20.86H84.64C85.02 20.86 85.34 20.56 85.34 20.16V14.04H81.02C80.38 14.04 79.86 14.54 79.86 15.18V19.7C79.86 20.36 80.38 20.86 81.02 20.86ZM83.6 22.86H80.4C78.82 22.86 77.56 21.54 77.56 20.02V14.86C77.56 13.28 78.88 12.02 80.4 12.02H87.64V22.86H85.34V21.38L83.6 22.86Z" fill="white"/>
<path d="M96.5414 13.98H93.3814C92.7014 13.98 92.2814 14.42 92.2814 15.06V15.36C92.2814 16 92.7414 16.46 93.3814 16.46H97.3814C98.9214 16.46 100.181 17.68 100.181 19.22V20.1C100.181 21.64 98.9214 22.86 97.3814 22.86H92.8614C91.3214 22.86 90.0214 21.62 90.0214 20.06V19.7H92.2814V19.76C92.2814 20.42 92.7814 20.9 93.4414 20.9H96.8014C97.4814 20.9 97.9014 20.46 97.9014 19.82V19.54C97.9014 18.9 97.4214 18.46 96.8014 18.46H92.8014C91.2414 18.46 90.0214 17.26 90.0214 15.7V14.78C90.0214 13.24 91.2414 12.02 92.8014 12.02H97.1214C98.6614 12.02 99.9614 13.26 99.9614 14.84V15.2H97.7014V15.12C97.7014 14.46 97.2014 13.98 96.5414 13.98Z" fill="white"/>
<path d="M109.946 12.02C111.486 12.02 112.786 13.28 112.786 14.86V20.02C112.786 21.56 111.546 22.86 109.946 22.86H105.146C103.646 22.86 102.326 21.6 102.326 20.02V14.86C102.326 13.34 103.586 12.02 105.146 12.02H109.946ZM110.466 19.7V15.18C110.466 14.54 109.966 14.04 109.326 14.04H105.786C105.146 14.04 104.626 14.54 104.626 15.18V19.7C104.626 20.36 105.146 20.86 105.786 20.86H109.326C109.966 20.86 110.466 20.36 110.466 19.7Z" fill="white"/>
<path d="M118.584 20.86H122.344C122.724 20.86 123.044 20.56 123.044 20.16V12.02H125.364V22.86H123.044V21.4L121.364 22.86H117.944C116.424 22.86 115.124 21.6 115.124 20.02V12.02H117.424V19.7C117.424 20.36 117.924 20.86 118.584 20.86Z" fill="white"/>
<path d="M130.256 14.72V22.86H127.956V12.02H130.256V13.44L131.936 12.02H135.436C136.976 12.02 138.276 13.28 138.276 14.86V22.86H135.956V15.18C135.956 14.54 135.456 14.04 134.816 14.04H130.956C130.576 14.04 130.256 14.32 130.256 14.72Z" fill="white"/>
<path d="M148.666 12.02V8.14001H150.986V22.86H148.666V21.38L146.926 22.86H143.486C141.906 22.86 140.646 21.54 140.646 20.02V14.86C140.646 13.28 141.966 12.02 143.486 12.02H148.666ZM144.106 20.86H147.966C148.346 20.86 148.666 20.56 148.666 20.16V14.04H144.106C143.466 14.04 142.946 14.54 142.946 15.18V19.7C142.946 20.36 143.466 20.86 144.106 20.86Z" fill="white"/>
<path d="M155.441 20.54V22.86H152.901V20.54H155.441Z" fill="white"/>
<path d="M159.67 14.72V22.86H157.37V8.14001H159.67V13.42L161.35 12.02H164.85C166.39 12.02 167.69 13.26 167.69 14.86V22.86H165.37V15.18C165.37 14.54 164.87 14.04 164.23 14.04H160.37C159.99 14.04 159.67 14.32 159.67 14.72Z" fill="white"/>
<path d="M177.68 12.02C179.22 12.02 180.52 13.28 180.52 14.86V20.02C180.52 21.56 179.28 22.86 177.68 22.86H172.88C171.38 22.86 170.06 21.6 170.06 20.02V14.86C170.06 13.34 171.32 12.02 172.88 12.02H177.68ZM178.2 19.7V15.18C178.2 14.54 177.7 14.04 177.06 14.04H173.52C172.88 14.04 172.36 14.54 172.36 15.18V19.7C172.36 20.36 172.88 20.86 173.52 20.86H177.06C177.7 20.86 178.2 20.36 178.2 19.7Z" fill="white"/>
<path d="M192.098 14.72V22.86H189.798V14.94C189.798 14.4 189.438 14.04 188.898 14.04H185.878C185.498 14.04 185.178 14.32 185.178 14.72V22.86H182.878V12.02H185.178V13.5L186.858 12.02H189.498C190.578 12.02 191.558 12.64 191.898 13.56L193.658 12.02H196.158C197.678 12.02 199.018 13.28 199.018 14.86V22.86H196.698V15.18C196.698 14.54 196.198 14.04 195.558 14.04H192.798C192.418 14.04 192.098 14.32 192.098 14.72Z" fill="white"/>
<path d="M208.245 14H204.945C204.305 14 203.805 14.5 203.805 15.16V16.4H209.345V15.1C209.345 14.46 208.885 14 208.245 14ZM208.765 22.86H204.345C202.785 22.86 201.525 21.58 201.525 20.02V14.86C201.525 13.28 202.785 12.02 204.345 12.02H208.825C210.385 12.02 211.605 13.26 211.605 14.8V18.18H203.805V19.72C203.805 20.38 204.305 20.88 204.945 20.88H208.185C208.825 20.88 209.345 20.38 209.345 19.72V19.44H211.605V20.16C211.605 21.74 210.305 22.86 208.765 22.86Z" fill="white"/>
<path d="M220.272 13.98H217.112C216.432 13.98 216.012 14.42 216.012 15.06V15.36C216.012 16 216.472 16.46 217.112 16.46H221.112C222.652 16.46 223.912 17.68 223.912 19.22V20.1C223.912 21.64 222.652 22.86 221.112 22.86H216.592C215.052 22.86 213.752 21.62 213.752 20.06V19.7H216.012V19.76C216.012 20.42 216.512 20.9 217.172 20.9H220.532C221.212 20.9 221.632 20.46 221.632 19.82V19.54C221.632 18.9 221.152 18.46 220.532 18.46H216.532C214.972 18.46 213.752 17.26 213.752 15.7V14.78C213.752 13.24 214.972 12.02 216.532 12.02H220.852C222.392 12.02 223.692 13.26 223.692 14.84V15.2H221.432V15.12C221.432 14.46 220.932 13.98 220.272 13.98Z" fill="white"/>
</svg>

<svg width="224" height="30" fill="none" viewBox="0 0 224 30" xmlns="http://www.w3.org/2000/svg">
  <path fill="#00D1FF" d="M7.007 9.805a.95.95 0 0 0-.75-.35H.182a.18.18 0 0 1-.131-.052A.16.16 0 0 1 0 9.29V5.165q0-.062.05-.113A.18.18 0 0 1 .183 5h6.42q2.43 0 4.192 2l1.56 1.918-3.038 3.733zm11.22-2.825Q19.987 5 22.438 5h6.4q.08 0 .12.041.04.042.041.124V9.29a.18.18 0 0 1-.04.113q-.041.051-.122.051h-6.075a.95.95 0 0 0-.75.351l-4.475 5.486 4.496 5.527q.303.33.729.33h6.075q.08 0 .122.052.04.052.04.134v4.124a.18.18 0 0 1-.04.113q-.041.052-.122.052h-6.4q-2.45 0-4.191-2l-3.727-4.579-3.726 4.579q-1.763 2-4.212 2h-6.4q-.081 0-.121-.052a.2.2 0 0 1-.04-.134v-4.125q-.001-.06.04-.113.04-.051.121-.052h6.075q.425 0 .75-.35l4.394-5.403z"/>
  <path fill="#fff" d="M49.98 22.86h-6.5c-1.7 0-3.12-1.46-3.12-3.1V8.86h2.5v10.6c0 .7.56 1.28 1.26 1.28h5.2c.7 0 1.28-.58 1.28-1.28V8.86h2.5v10.9c0 1.66-1.42 3.1-3.12 3.1m5.79-14.72h2.32v14.72h-2.32zm11.5 12.72v2h-2.78c-1.54 0-2.8-1.2-2.8-2.78v-6.04h-1.88v-2.02h1.88V9.64h2.32v2.38h3.28v2.02h-3.28v5.7c0 .66.44 1.12 1.1 1.12zm4.217-6.14v8.14h-2.3V12.02h2.3v1.36l1.68-1.36h3.42v2.02h-4.4c-.38 0-.7.28-.7.68m9.533 6.14h3.62c.38 0 .7-.3.7-.7v-6.12h-4.32c-.64 0-1.16.5-1.16 1.14v4.52c0 .66.52 1.16 1.16 1.16m2.58 2h-3.2c-1.58 0-2.84-1.32-2.84-2.84v-5.16c0-1.58 1.32-2.84 2.84-2.84h7.24v10.84h-2.3v-1.48zm12.941-8.88h-3.16c-.68 0-1.1.44-1.1 1.08v.3c0 .64.46 1.1 1.1 1.1h4c1.54 0 2.8 1.22 2.8 2.76v.88c0 1.54-1.26 2.76-2.8 2.76h-4.52c-1.54 0-2.84-1.24-2.84-2.8v-.36h2.26v.06c0 .66.5 1.14 1.16 1.14h3.36c.68 0 1.1-.44 1.1-1.08v-.28c0-.64-.48-1.08-1.1-1.08h-4c-1.56 0-2.78-1.2-2.78-2.76v-.92c0-1.54 1.22-2.76 2.78-2.76h4.32c1.54 0 2.84 1.24 2.84 2.82v.36h-2.26v-.08c0-.66-.5-1.14-1.16-1.14m13.405-1.96a2.85 2.85 0 0 1 2.84 2.84v5.16c0 1.54-1.24 2.84-2.84 2.84h-4.8c-1.5 0-2.82-1.26-2.82-2.84v-5.16c0-1.52 1.26-2.84 2.82-2.84zm.52 7.68v-4.52c0-.64-.5-1.14-1.14-1.14h-3.54c-.64 0-1.16.5-1.16 1.14v4.52c0 .66.52 1.16 1.16 1.16h3.54c.64 0 1.14-.5 1.14-1.16m8.118 1.16h3.76c.38 0 .7-.3.7-.7v-8.14h2.32v10.84h-2.32V21.4l-1.68 1.46h-3.42c-1.52 0-2.82-1.26-2.82-2.84v-8h2.3v7.68c0 .66.5 1.16 1.16 1.16m11.672-6.14v8.14h-2.3V12.02h2.3v1.42l1.68-1.42h3.5a2.85 2.85 0 0 1 2.84 2.84v8h-2.32v-7.68c0-.64-.5-1.14-1.14-1.14h-3.86c-.38 0-.7.28-.7.68m18.41-2.7V8.14h2.32v14.72h-2.32v-1.48l-1.74 1.48h-3.44c-1.58 0-2.84-1.32-2.84-2.84v-5.16c0-1.58 1.32-2.84 2.84-2.84zm-4.56 8.84h3.86c.38 0 .7-.3.7-.7v-6.12h-4.56c-.64 0-1.16.5-1.16 1.14v4.52c0 .66.52 1.16 1.16 1.16m11.335-.32v2.32h-2.54v-2.32zm4.229-5.82v8.14h-2.3V8.14h2.3v5.28l1.68-1.4h3.5c1.54 0 2.84 1.24 2.84 2.84v8h-2.32v-7.68c0-.64-.5-1.14-1.14-1.14h-3.86c-.38 0-.7.28-.7.68m18.01-2.7a2.85 2.85 0 0 1 2.84 2.84v5.16c0 1.54-1.24 2.84-2.84 2.84h-4.8c-1.5 0-2.82-1.26-2.82-2.84v-5.16c0-1.52 1.26-2.84 2.82-2.84zm.52 7.68v-4.52c0-.64-.5-1.14-1.14-1.14h-3.54c-.64 0-1.16.5-1.16 1.14v4.52c0 .66.52 1.16 1.16 1.16h3.54c.64 0 1.14-.5 1.14-1.16m13.898-4.98v8.14h-2.3v-7.92c0-.54-.36-.9-.9-.9h-3.02c-.38 0-.7.28-.7.68v8.14h-2.3V12.02h2.3v1.48l1.68-1.48h2.64c1.08 0 2.06.62 2.4 1.54l1.76-1.54h2.5c1.52 0 2.86 1.26 2.86 2.84v8h-2.32v-7.68c0-.64-.5-1.14-1.14-1.14h-2.76c-.38 0-.7.28-.7.68m16.147-.72h-3.3c-.64 0-1.14.5-1.14 1.16v1.24h5.54v-1.3c0-.64-.46-1.1-1.1-1.1m.52 8.86h-4.42c-1.56 0-2.82-1.28-2.82-2.84v-5.16c0-1.58 1.26-2.84 2.82-2.84h4.48c1.56 0 2.78 1.24 2.78 2.78v3.38h-7.8v1.54c0 .66.5 1.16 1.14 1.16h3.24c.64 0 1.16-.5 1.16-1.16v-.28h2.26v.72c0 1.58-1.3 2.7-2.84 2.7m11.507-8.88h-3.16c-.68 0-1.1.44-1.1 1.08v.3c0 .64.46 1.1 1.1 1.1h4c1.54 0 2.8 1.22 2.8 2.76v.88c0 1.54-1.26 2.76-2.8 2.76h-4.52c-1.54 0-2.84-1.24-2.84-2.8v-.36h2.26v.06c0 .66.5 1.14 1.16 1.14h3.36c.68 0 1.1-.44 1.1-1.08v-.28c0-.64-.48-1.08-1.1-1.08h-4c-1.56 0-2.78-1.2-2.78-2.76v-.92c0-1.54 1.22-2.76 2.78-2.76h4.32c1.54 0 2.84 1.24 2.84 2.82v.36h-2.26v-.08c0-.66-.5-1.14-1.16-1.14"/>
</svg>
